X: 29543
T: Nobody Cares For Me
R: jig
M: 6/8
K: Aminor
|:F/E/|ABA AGE|cde B2 A/B/|cde edc|Bdc/B/ B2 F/E/|
ABA AGE|cde B2 A/B/|cde edc|ecB A2:|
|:c/d/|efe edc|ded dcB|cde edB|B/c/dB B2 F/E/|
ABA AGE|cde/c/ B2 e/d/|cBA e/d/c/B/A/G/|1 A3 A2:|2 A3 A2||

